X:1
T:Closer to Thee
T:Austin Taylor, 1911
T:Closer to Thee
T:Public Domain
T:Public Domain
C:Austin Taylor, 1911
Z:Public Domain
%%score ( 1 2 ) ( 3 4 )
L:1/8
M:6/8
K:Bb
V:1 treble 
V:2 treble 
V:3 bass 
V:4 bass 
V:1
 [DF]3 [^C=E]2 [_EG] | [DF]6 | [Fd]3 [=E^c]2 [Fd] | [DB]6 | [GB]3 [FA]2 [EG] | (D4 F2) | %6
w: 1.~Clos- er to|Thee,|near to Thy|side,|Clos- er, dear|Lord, *|
w: 2.~Clos- er to|Thee,|near to Thy|breast,|Clos- er to|Thee, *|
w: 3.~Clos- er to|Thee,|hap- py and|free,|Grant me, O|Lord, *|
 [=EG]3 [Ed]2 [E_d] | [Ec]6 | [DF]3 [^C=E]2 [_EG] | [DF]2 [FB] [FB]3 | [Fc]3 [FB]2 [EA] | %11
w: would a- bide;|Hold|me in Thy|em- brace, ’Neath|ev- ’ry smile|
w: let me rest;|Guide|me when I|would stray, Keep|me from sin|
w: er to be;|Hear|me in ev-|’ry cry, Stand|near when I|
 [DB]2 [EG] [DF]3 | [EG]3 [GB]2 [EG] | F2 [FB] [Fd]3 | [Fc]3 [FB]2 [FA] | [FB]6 |] %16
w: of grace; Grant|me, Thy child,|a place Clos-|to Thee. *||
w: each day, Draw|me, dear Lord,|I pray, Clos-|to Thee. *||
w: must die; Then|take me home|on high, Clos-|to Thee. *||
V:2
 x6 | x6 | x6 | x6 | x6 | F6 | x6 | x6 | x6 | x6 | x6 | x6 | x6 | F2 x4 | x6 | x6 |] %16
w: |||||I||||||||er|||
w: |||||Lord,||||||||er|||
w: |||||ev-||||||||er|||
V:3
 [B,,B,]3 [B,,B,]2 [B,,B,] | [B,,B,]6 | [B,,B,]3 [B,,B,]2 [B,,B,] | [B,,B,]6 | %4
 [E,B,]3 [E,B,]2 [E,B,] | (B,,4 D,2) | [C,B,]3 [C,B,]2 [C,B,] | [F,A,]6 | %8
 [B,,B,]3 [B,,B,]2 [B,,B,] | [B,,B,]2 [B,,D] [B,,D]3 | [F,E]3 [F,D]2 [F,C] | %11
 [B,,B,]2 [B,,B,] [B,,B,]3 | [E,B,]3 [E,B,]2 [E,B,] | [D,B,]2 [F,D] B,3 | [F,E]3 [F,D]2 [F,C] | %15
 [B,,D]6 |] %16
V:4
 x6 | x6 | x6 | x6 | x6 | B,6 | x6 | x6 | x6 | x6 | x6 | x6 | x6 | x3 B,3 | x6 | x6 |] %16

